**harm	**harte	**silbe	**rhyme	**timestamp	**phrase	**leadinstrument	**kern
*M4/4	*M4/4	*	*	*	*	*	*
*	*	*	*	*	*	*	*
*	*	*	*	*	*	*	*
*b:	*b:	*	*	*b:	*b:	*b:	*b:
*	*	*	*	*	*	*	*
*	*	*	*	*	*	*	*
1r;	N	.	.	0	.	r	1r;
1r;	N	.	.	0.464	.	r	1r;
=1	=1	=1	=1	=1	=1	=1	=1
*>Letter>A2	*>Letter>A2	*>Letter>A2	*>Letter>A2	*>Letter>A2	*>Letter>A2	*>Letter>A2	*>Letter>A2
*>Label>Solo	*>Label>Solo	*>Label>Solo	*>Label>Solo	*>Label>Solo	*>Label>Solo	*>Label>Solo	*>Label>Solo
1i	B:min	.	.	18.663	newline	guitar	1B 1dd 1ff#
=2	=2	=2	=2	=2	=2	=2	=2
1-VI7	G:maj7	.	.	21.027	.	guitar	1G- 1b- 1dd- 1ff#
=3	=3	=3	=3	=3	=3	=3	=3
1i	B:min	.	.	23.391	.	guitar	1B 1dd 1ff#
=4	=4	=4	=4	=4	=4	=4	=4
1-VI7	G:maj7	.	.	25.755	.	guitar	1G- 1b- 1dd- 1ff#
=5	=5	=5	=5	=5	=5	=5	=5
1i	B:min	.	.	28.119	newline	guitar	1B 1dd 1ff#
=6	=6	=6	=6	=6	=6	=6	=6
1-IIIc	D:maj/5	.	.	30.541	.	guitar	1d- 1f 1A-
=7	=7	=7	=7	=7	=7	=7	=7
1-VI7	G:maj7	.	.	32.962	.	guitar	1G- 1b- 1dd- 1ff#
=8	=8	=8	=8	=8	=8	=8	=8
*M2/4	*M2/4	*	*	*M2/4	*M2/4	*M2/4	*
4iv	E:5	.	.	35.384	.	guitar	2E 2g 2b
4v	F#:sus4	.	.	35.989	.	guitar	4F# 4a 4cc#
=9	=9	=9	=9	=9	=9	=9	=9
*>Letter>A2	*>Letter>A2	*>Letter>A2	*>Letter>A2	*>Letter>A2	*>Letter>A2	*>Letter>A2	*>Letter>A2
*>Label>Solo	*>Label>Solo	*>Label>Solo	*>Label>Solo	*>Label>Solo	*>Label>Solo	*>Label>Solo	*>Label>Solo
*M4/4	*M4/4	*	*	*M4/4	*M4/4	*M4/4	*
1i	B:min	.	.	36.595	newline	guitar	1B 1dd 1ff#
=10	=10	=10	=10	=10	=10	=10	=10
1-VI7	G:maj7	.	.	39.007	.	guitar	1G- 1b- 1dd- 1ff#
=11	=11	=11	=11	=11	=11	=11	=11
1i	B:min	.	.	41.419	.	guitar	1B 1dd 1ff#
=12	=12	=12	=12	=12	=12	=12	=12
1-VI7	G:maj7	.	.	43.832	.	guitar	1G- 1b- 1dd- 1ff#
=13	=13	=13	=13	=13	=13	=13	=13
1i	B:min	.	.	46.244	newline	guitar	1B 1dd 1ff#
=14	=14	=14	=14	=14	=14	=14	=14
1-IIIc	D:maj/5	.	.	48.662	.	guitar	1d- 1f 1A-
=15	=15	=15	=15	=15	=15	=15	=15
1-VI7	G:maj7	.	.	51.08	.	guitar	1G- 1b- 1dd- 1ff#
=16	=16	=16	=16	=16	=16	=16	=16
*M2/4	*M2/4	*	*	*M2/4	*M2/4	*M2/4	*
4iv	E:5	.	.	53.497	.	guitar	2E 2g 2b
4v	F#:sus4	.	.	54.102	.	guitar	4F# 4a 4cc#
=17	=17	=17	=17	=17	=17	=17	=17
*>Letter>A2	*>Letter>A2	*>Letter>A2	*>Letter>A2	*>Letter>A2	*>Letter>A2	*>Letter>A2	*>Letter>A2
*>Label>Solo	*>Label>Solo	*>Label>Solo	*>Label>Solo	*>Label>Solo	*>Label>Solo	*>Label>Solo	*>Label>Solo
*M4/4	*M4/4	*	*	*M4/4	*M4/4	*M4/4	*
1i	B:min	.	.	54.706	newline	guitar	1B 1dd 1ff#
=18	=18	=18	=18	=18	=18	=18	=18
1-VI7	G:maj7	.	.	57.106	.	guitar	1G- 1b- 1dd- 1ff#
=19	=19	=19	=19	=19	=19	=19	=19
1i	B:min	.	.	59.505	.	guitar	1B 1dd 1ff#
=20	=20	=20	=20	=20	=20	=20	=20
1-VI7	G:maj7	.	.	61.904	.	guitar	1G- 1b- 1dd- 1ff#
=21	=21	=21	=21	=21	=21	=21	=21
1i	B:min	.	.	64.303	newline	guitar	1B 1dd 1ff#
=22	=22	=22	=22	=22	=22	=22	=22
1-IIIc	D:maj/5	.	.	66.684	.	guitar	1d- 1f 1A-
=23	=23	=23	=23	=23	=23	=23	=23
1-VI7	G:maj7	.	.	69.065	.	guitar	1G- 1b- 1dd- 1ff#
=24	=24	=24	=24	=24	=24	=24	=24
4iv	E:5	.	.	71.445	.	guitar	1E 1g 1b
4v	F#:sus4	.	.	72.04	.	guitar	4F# 4a 4cc#
2iv	E:5	.	.	72.636	.	guitar	2E 2g 2b
=25	=25	=25	=25	=25	=25	=25	=25
*>Letter>A	*>Letter>A	*>Letter>A	*>Letter>A	*>Letter>A	*>Letter>A	*>Letter>A	*>Letter>A
*>Label>Solo	*>Label>Solo	*>Label>Solo	*>Label>Solo	*>Label>Solo	*>Label>Solo	*>Label>Solo	*>Label>Solo
*M3/4	*M3/4	*	*	*M3/4	*M3/4	*M3/4	*
2.i	B:min	.	.	73.826	newline	guitar	2.B 2.dd 2.ff#
=26	=26	=26	=26	=26	=26	=26	=26
2.-VI7	G:maj7	.	.	75.619	.	guitar	2.G- 2.b- 2.dd- 2.ff#
=27	=27	=27	=27	=27	=27	=27	=27
2.i	B:min	.	.	77.413	.	guitar	2.B 2.dd 2.ff#
=28	=28	=28	=28	=28	=28	=28	=28
2.-VI7	G:maj7	.	.	79.206	.	guitar	2.G- 2.b- 2.dd- 2.ff#
=29	=29	=29	=29	=29	=29	=29	=29
2.i	B:min	.	.	81	newline	guitar	2.B 2.dd 2.ff#
=30	=30	=30	=30	=30	=30	=30	=30
2.-IIIc	D:maj/5	.	.	82.786	.	guitar	2.d- 2.f 2.A-
=31	=31	=31	=31	=31	=31	=31	=31
2.-VI7	G:maj7	.	.	84.572	.	guitar	2.G- 2.b- 2.dd- 2.ff#
=32	=32	=32	=32	=32	=32	=32	=32
2iv	E:sus2	.	.	86.358	.	guitar	2.E 2.g 2.b
4v	F#:5	.	.	87.549	.	guitar	4F# 4a 4cc#
=33	=33	=33	=33	=33	=33	=33	=33
4.-VI	G:maj	.	.	88.145	.	guitar	2.G- 2.b- 2.dd-
4.-VII	A:maj	.	.	89.335	.	guitar	4A 4cc# 4ee
=34	=34	=34	=34	=34	=34	=34	=34
*>Letter>B	*>Letter>B	*>Letter>B	*>Letter>B	*>Letter>B	*>Letter>B	*>Letter>B	*>Letter>B
*>Label>Preverse	*>Label>Preverse	*>Label>Preverse	*>Label>Preverse	*>Label>Preverse	*>Label>Preverse	*>Label>Preverse	*>Label>Preverse
*D:	*D:	*	*	*	*	*	*D:
2.I	D:maj	.	.	89.931	newline	guitar	2.D 2.f# 2.a
=35	=35	=35	=35	=35	=35	=35	=35
2.IV	G:maj	.	.	91.701	.	guitar	2.G 2.b 2.dd
=36	=36	=36	=36	=36	=36	=36	=36
2.-III	F:maj(9)	.	.	93.471	.	guitar	2.F 2.a 2.cc
=37	=37	=37	=37	=37	=37	=37	=37
2.ii	E:min	.	.	95.241	.	guitar	2.E 2.g 2.b
=38	=38	=38	=38	=38	=38	=38	=38
2.I	D:maj	.	.	97.011	newline	guitar	2.D 2.f# 2.a
=39	=39	=39	=39	=39	=39	=39	=39
2.IV	G:maj	.	.	98.771	.	guitar	2.G 2.b 2.dd
=40	=40	=40	=40	=40	=40	=40	=40
2.-III	F:maj(9)	.	.	100.531	.	guitar	2.F 2.a 2.cc
=41	=41	=41	=41	=41	=41	=41	=41
2ii	E:min	.	.	102.291	.	guitar	2.E 2.g 2.b
4-VII	C:1	.	.	103.464	.	guitar	4C 4e 4g
=42	=42	=42	=42	=42	=42	=42	=42
*>Letter>A	*>Letter>A	*>Letter>A	*>Letter>A	*>Letter>A	*>Letter>A	*>Letter>A	*>Letter>A
*>Label>Verse	*>Label>Verse	*>Label>Verse	*>Label>Verse	*>Label>Verse	*>Label>Verse	*>Label>Verse	*>Label>Verse
*b:	*b:	*	*	*	*	*	*b:
2.i	B:min	.	.	104.051	newline	voice	2.B 2.dd 2.ff#
.	.	I	.	.	.	.	.
.	.	can't	.	.	.	.	.
.	.	re-	.	.	.	.	.
.	.	-mem-	.	.	.	.	.
.	.	-ber	.	.	.	.	.
=43	=43	=43	=43	=43	=43	=43	=43
2.-VI7	G:maj7	an-	.	105.853	.	voice	2.G- 2.b- 2.dd- 2.ff#
.	.	-y-	.	.	.	.	.
.	.	-thing	A	.	.	.	.
=44	=44	=44	=44	=44	=44	=44	=44
2.i	B:min	.	.	107.655	.	voice	2.B 2.dd 2.ff#
.	.	can't	.	.	.	.	.
.	.	tell	.	.	.	.	.
.	.	if	.	.	.	.	.
.	.	this	.	.	.	.	.
.	.	is	.	.	.	.	.
=45	=45	=45	=45	=45	=45	=45	=45
2-VI7	G:maj7	true	.	109.458	.	voice	2G- 2b- 2dd- 2ff#
.	.	or	.	.	.	.	.
.	.	_	.	.	.	.	.
4-VII	A:sus4	dream	A	110.659	.	voice	4A 4cc# 4ee
=46	=46	=46	=46	=46	=46	=46	=46
2.i	B:min	.	.	111.26	newline	voice	2.B 2.dd 2.ff#
.	.	Deep	.	.	.	.	.
.	.	down	.	.	.	.	.
.	.	in-	.	.	.	.	.
.	.	-side	.	.	.	.	.
.	.	I	.	.	.	.	.
=47	=47	=47	=47	=47	=47	=47	=47
2.-IIIc	D:maj/5	feel	.	113.036	.	voice	2.d- 2.f 2.A-
.	.	to	.	.	.	.	.
.	.	scream	A	.	.	.	.
.	.	_	.	.	.	.	.
=48	=48	=48	=48	=48	=48	=48	=48
2.-VI7	G:maj7	.	.	114.812	.	voice	2.G- 2.b- 2.dd- 2.ff#
.	.	This	.	.	.	.	.
.	.	ter-	.	.	.	.	.
.	.	-ri-	.	.	.	.	.
.	.	-ble	.	.	.	.	.
.	.	si-	.	.	.	.	.
.	.	-lence	.	.	.	.	.
=49	=49	=49	=49	=49	=49	=49	=49
*M2/4	*M2/4	*	*	*M2/4	*M2/4	*M2/4	*
4iv	E:sus2	stops	.	116.588	.	voice	4E 4g 4b
.	.	with	.	.	.	.	.
4v	F#:5	me	A	117.18	.	voice	4F# 4a 4cc#
=50	=50	=50	=50	=50	=50	=50	=50
*M3/4	*M3/4	*	*	*M3/4	*M3/4	*M3/4	*
2.i	B:min	.	.	117.772	newline	voice	2.B 2.dd 2.ff#
.	.	Now	.	.	.	.	.
.	.	that	.	.	.	.	.
.	.	the	.	.	.	.	.
.	.	war	.	.	.	.	.
.	.	is	.	.	.	.	.
=51	=51	=51	=51	=51	=51	=51	=51
2.-VI7	G:maj7	through	.	119.561	.	voice	2.G- 2.b- 2.dd- 2.ff#
.	.	with	.	.	.	.	.
.	.	me	A	.	.	.	.
=52	=52	=52	=52	=52	=52	=52	=52
2.i	B:min	.	.	121.35	.	voice	2.B 2.dd 2.ff#
.	.	I'm	.	.	.	.	.
.	.	wal-	.	.	.	.	.
.	.	-king	a	.	.	.	.
.	.	up	.	.	.	.	.
.	.	I	.	.	.	.	.
=53	=53	=53	=53	=53	=53	=53	=53
2-VI7	G:maj7	can	.	123.139	.	voice	2G- 2b- 2dd- 2ff#
.	.	not	.	.	.	voice	.
.	.	_	.	.	.	.	.
4-VII	A:sus4	see	A	124.332	.	voice	4A 4cc# 4ee
=54	=54	=54	=54	=54	=54	=54	=54
2.i	B:min	.	.	124.928	newline	voice	2.B 2.dd 2.ff#
.	.	that	.	.	.	.	.
.	.	there's	.	.	.	.	.
.	.	not	.	.	.	.	.
.	.	much	.	.	.	.	.
=55	=55	=55	=55	=55	=55	=55	=55
2.-IIIc	D:maj/5	left	.	126.71	.	voice	2.d- 2.f 2.A-
.	.	of	.	.	.	.	.
.	.	me	A	.	.	.	.
.	.	_	.	.	.	.	.
=56	=56	=56	=56	=56	=56	=56	=56
2.-VI7	G:maj7	.	.	128.492	.	voice	2.G- 2.b- 2.dd- 2.ff#
.	.	Noth-	.	.	.	.	.
.	.	-ing	.	.	.	.	.
.	.	is	.	.	.	.	.
.	.	real	.	.	.	.	.
.	.	but	.	.	.	.	.
=57	=57	=57	=57	=57	=57	=57	=57
*M2/4	*M2/4	*	*	*M2/4	*M2/4	*M2/4	*
4iv	E:sus2	pain	.	130.273	.	voice	4E 4g 4b
.	.	_	.	.	.	.	.
4v	F#:5	now	.	130.867	.	voice	4F# 4a 4cc#
=58	=58	=58	=58	=58	=58	=58	=58
*>Letter>C	*>Letter>C	*>Letter>C	*>Letter>C	*>Letter>C	*>Letter>C	*>Letter>C	*>Letter>C
*>Label>Prechorus	*>Label>Prechorus	*>Label>Prechorus	*>Label>Prechorus	*>Label>Prechorus	*>Label>Prechorus	*>Label>Prechorus	*>Label>Prechorus
*M4/4	*M4/4	*	*	*M4/4	*M4/4	*M4/4	*
1-VI	G:maj	Hold	.	131.461	newline	voice	1G- 1b- 1dd-
.	.	me	.	.	.	.	.
.	.	breath	B	.	.	.	.
.	.	as	.	.	.	.	.
.	.	I	.	.	.	.	.
=59	=59	=59	=59	=59	=59	=59	=59
*M2/4	*M2/4	*	*	*M2/4	*M2/4	*M2/4	*
4V7	F#:7	wish	.	133.785	.	voice	4F# 4a# 4cc# 4ee
4i	B:min	for	.	134.365	.	voice	4B 4dd 4ff#
.	.	death	B	.	.	.	.
=60	=60	=60	=60	=60	=60	=60	=60
*M4/4	*M4/4	*	*	*M4/4	*M4/4	*M4/4	*
1-VII	A:maj	_	.	134.946	.	voice	1A 1cc# 1ee
.	.	.	.	.	.	.	.
.	.	Oh	.	.	.	.	.
.	.	please	A	.	.	.	.
=61	=61	=61	=61	=61	=61	=61	=61
*M2/4	*M2/4	*	*	*M2/4	*M2/4	*M2/4	*
4-II	C:1	God	.	137.27	.	voice	4C 4e 4g
4ii	C#:1	wake	.	137.851	.	voice	4C# 4e 4g#
=62	=62	=62	=62	=62	=62	=62	=62
*>Letter>B	*>Letter>B	*>Letter>B	*>Letter>B	*>Letter>B	*>Letter>B	*>Letter>B	*>Letter>B
*>Label>Preverse	*>Label>Preverse	*>Label>Preverse	*>Label>Preverse	*>Label>Preverse	*>Label>Preverse	*>Label>Preverse	*>Label>Preverse
*M3/4	*M3/4	*	*	*M3/4	*M3/4	*M3/4	*
*D:	*D:	*	*	*	*	*	*D:
2.I	D:maj	me	A	138.431	newline	guitar	2.D 2.f# 2.a
.	.	_	.	.	.	.	.
.	.	_	.	.	.	.	.
=63	=63	=63	=63	=63	=63	=63	=63
2.IV	G:maj	_	.	140.199	.	guitar	2.G 2.b 2.dd
=64	=64	=64	=64	=64	=64	=64	=64
2.-III	F:maj(9)	_	.	141.966	.	guitar	2.F 2.a 2.cc
=65	=65	=65	=65	=65	=65	=65	=65
2.ii	E:min	_	.	143.734	.	guitar	2.E 2.g 2.b
.	.	.	.	.	.	.	.
=66	=66	=66	=66	=66	=66	=66	=66
2.I	D:maj	.	.	145.501	newline	guitar	2.D 2.f# 2.a
=67	=67	=67	=67	=67	=67	=67	=67
2.IV	G:maj	.	.	147.276	.	guitar	2.G 2.b 2.dd
=68	=68	=68	=68	=68	=68	=68	=68
2.-III	F:maj(9)	.	.	149.051	.	guitar	2.F 2.a 2.cc
=69	=69	=69	=69	=69	=69	=69	=69
2ii	E:min	.	.	150.826	.	guitar	2.E 2.g 2.b
4-VII	C:1	.	.	152.01	.	guitar	4C 4e 4g
=70	=70	=70	=70	=70	=70	=70	=70
*>Letter>A	*>Letter>A	*>Letter>A	*>Letter>A	*>Letter>A	*>Letter>A	*>Letter>A	*>Letter>A
*>Label>Verse	*>Label>Verse	*>Label>Verse	*>Label>Verse	*>Label>Verse	*>Label>Verse	*>Label>Verse	*>Label>Verse
*b:	*b:	*	*	*	*	*	*b:
2.i	B:min	.	.	152.602	newline	voice	2.B 2.dd 2.ff#
.	.	Back	.	.	.	.	.
.	.	in	.	.	.	.	.
.	.	the	.	.	.	.	.
.	.	womb	.	.	.	.	.
.	.	it's	.	.	.	.	.
=71	=71	=71	=71	=71	=71	=71	=71
2.-VI7	G:maj7	much	.	154.391	.	voice	2.G- 2.b- 2.dd- 2.ff#
.	.	to	.	.	.	.	.
.	.	real	A	.	.	.	.
=72	=72	=72	=72	=72	=72	=72	=72
2.i	B:min	.	.	156.18	.	voice	2.B 2.dd 2.ff#
.	.	In	.	.	.	.	.
.	.	pumps	.	.	.	.	.
.	.	life	.	.	.	.	.
.	.	that	.	.	.	.	.
=73	=73	=73	=73	=73	=73	=73	=73
2-VI7	G:maj7	I	.	157.969	.	voice	2G- 2b- 2dd- 2ff#
.	.	must	.	.	.	.	.
.	.	_	.	.	.	.	.
4-VII	A:sus4	feel	.	159.162	.	voice	4A 4cc# 4ee
=74	=74	=74	=74	=74	=74	=74	=74
2.i	B:min	.	.	159.758	newline	voice	2.B 2.dd 2.ff#
.	.	but	.	.	.	.	.
.	.	can't	.	.	.	.	.
.	.	look	.	.	.	.	.
.	.	for-	.	.	.	.	.
.	.	-ward	.	.	.	.	.
=75	=75	=75	=75	=75	=75	=75	=75
2.-IIIc	D:maj/5	to	.	161.552	.	voice	2.d- 2.f 2.A-
.	.	re-	.	.	.	.	.
.	.	-veal	A	.	.	.	.
.	.	_	.	.	.	.	.
.	.	_	.	.	.	.	.
=76	=76	=76	=76	=76	=76	=76	=76
2.-VI7	G:maj7	.	.	163.346	.	voice	2.G- 2.b- 2.dd- 2.ff#
.	.	Look	.	.	.	.	.
.	.	to	.	.	.	.	.
.	.	the	.	.	.	.	.
.	.	time	.	.	.	.	.
.	.	when	.	.	.	.	.
=77	=77	=77	=77	=77	=77	=77	=77
*M2/4	*M2/4	*	*	*M2/4	*M2/4	*M2/4	*
4iv	E:sus2	I'll	.	165.14	.	voice	4E 4g 4b
.	.	_	.	.	.	.	.
4v	F#:5	live	.	165.738	.	voice	4F# 4a 4cc#
=78	=78	=78	=78	=78	=78	=78	=78
*M3/4	*M3/4	*	*	*M3/4	*M3/4	*M3/4	*
2.i	B:min	.	.	166.336	newline	voice	2.B 2.dd 2.ff#
.	.	Fed	.	.	.	.	.
.	.	through	.	.	.	.	.
.	.	the	.	.	.	.	.
.	.	tube	.	.	.	.	.
.	.	that	.	.	.	.	.
=79	=79	=79	=79	=79	=79	=79	=79
2.-VI7	G:maj7	sticks	.	168.116	.	voice	2.G- 2.b- 2.dd- 2.ff#
.	.	in	.	.	.	.	.
.	.	me	A	.	.	.	.
=80	=80	=80	=80	=80	=80	=80	=80
2.i	B:min	.	.	169.897	.	voice	2.B 2.dd 2.ff#
.	.	just	.	.	.	.	.
.	.	like	.	.	.	.	.
.	.	a	.	.	.	.	.
.	.	war-	.	.	.	.	.
.	.	-time	.	.	.	.	.
=81	=81	=81	=81	=81	=81	=81	=81
2-VI7	G:maj7	nov-	.	171.677	.	voice	2G- 2b- 2dd- 2ff#
.	.	-el-	.	.	.	.	.
.	.	_	.	.	.	.	.
4-VII	A:sus4	-ty	A	172.864	.	voice	4A 4cc# 4ee
=82	=82	=82	=82	=82	=82	=82	=82
2.i	B:min	.	.	173.458	newline	voice	2.B 2.dd 2.ff#
.	.	tied	.	.	.	.	.
.	.	to	.	.	.	.	.
.	.	ma-	.	.	.	.	.
.	.	-chines	.	.	.	.	.
.	.	that	.	.	.	.	.
=83	=83	=83	=83	=83	=83	=83	=83
2.-IIIc	D:maj/5	make	.	175.254	.	voice	2.d- 2.f 2.A-
.	.	me	.	.	.	.	.
.	.	be	A	.	.	.	.
.	.	_	.	.	.	.	.
.	.	_	.	.	.	.	.
=84	=84	=84	=84	=84	=84	=84	=84
2.-VI7	G:maj7	.	.	177.051	.	voice	2.G- 2.b- 2.dd- 2.ff#
.	.	Cut	.	.	.	.	.
.	.	this	.	.	.	.	.
.	.	life	.	.	.	.	.
.	.	off	.	.	.	.	.
=85	=85	=85	=85	=85	=85	=85	=85
*M2/4	*M2/4	*	*	*M2/4	*M2/4	*M2/4	*
4iv	E:sus2	from	.	178.848	.	voice	4E 4g 4b
.	.	_	.	.	.	.	.
4v	F#:5	me	A	179.447	.	voice	4F# 4a 4cc#
=86	=86	=86	=86	=86	=86	=86	=86
*>Letter>C	*>Letter>C	*>Letter>C	*>Letter>C	*>Letter>C	*>Letter>C	*>Letter>C	*>Letter>C
*>Label>Prechorus	*>Label>Prechorus	*>Label>Prechorus	*>Label>Prechorus	*>Label>Prechorus	*>Label>Prechorus	*>Label>Prechorus	*>Label>Prechorus
*M4/4	*M4/4	*	*	*M4/4	*M4/4	*M4/4	*
1-VI	G:maj	Hold	.	180.046	newline	voice	1G- 1b- 1dd-
.	.	my	.	.	.	.	.
.	.	breath	B	.	.	.	.
.	.	as	.	.	.	.	.
.	.	I	.	.	.	.	.
=87	=87	=87	=87	=87	=87	=87	=87
*M2/4	*M2/4	*	*	*M2/4	*M2/4	*M2/4	*
4V7	F#:7	wish	.	182.368	.	voice	4F# 4a# 4cc# 4ee
4i	B:min	for	.	182.949	.	voice	4B 4dd 4ff#
.	.	death	B	.	.	.	.
=88	=88	=88	=88	=88	=88	=88	=88
*M4/4	*M4/4	*	*	*M4/4	*M4/4	*M4/4	*
1-VII	A:maj	_	.	183.529	.	voice	1A 1cc# 1ee
.	.	.	.	.	.	.	.
.	.	Oh	.	.	.	.	.
.	.	please	.	.	.	.	.
=89	=89	=89	=89	=89	=89	=89	=89
*M2/4	*M2/4	*	*	*M2/4	*M2/4	*M2/4	*
4-II	C:1	God	.	185.852	.	voice	4C 4e 4g
4ii	C#:1	wake	.	186.432	.	voice	4C# 4e 4g#
=90	=90	=90	=90	=90	=90	=90	=90
*>Letter>B	*>Letter>B	*>Letter>B	*>Letter>B	*>Letter>B	*>Letter>B	*>Letter>B	*>Letter>B
*>Label>Preverse	*>Label>Preverse	*>Label>Preverse	*>Label>Preverse	*>Label>Preverse	*>Label>Preverse	*>Label>Preverse	*>Label>Preverse
*M3/4	*M3/4	*	*	*M3/4	*M3/4	*M3/4	*
*D:	*D:	*	*	*	*	*	*D:
2.I	D:maj	me	A	187.013	newline	guitar	2.D 2.f# 2.a
.	.	_	.	.	.	.	.
.	.	_	.	.	.	.	.
=91	=91	=91	=91	=91	=91	=91	=91
2.IV	G:maj	_	.	188.783	.	guitar	2.G 2.b 2.dd
=92	=92	=92	=92	=92	=92	=92	=92
2.-III	F:maj(9)	_	.	190.554	.	guitar	2.F 2.a 2.cc
=93	=93	=93	=93	=93	=93	=93	=93
2.ii	E:min	_	.	192.325	.	guitar	2.E 2.g 2.b
.	.	.	.	.	.	.	.
=94	=94	=94	=94	=94	=94	=94	=94
2.I	D:maj	.	.	194.096	newline	guitar	2.D 2.f# 2.a
=95	=95	=95	=95	=95	=95	=95	=95
2.IV	G:maj	.	.	195.87	.	guitar	2.G 2.b 2.dd
=96	=96	=96	=96	=96	=96	=96	=96
2.-III	F:maj(9)	.	.	197.643	.	guitar	2.F 2.a 2.cc
=97	=97	=97	=97	=97	=97	=97	=97
2.ii	E:min	.	.	199.417	.	guitar	2.E 2.g 2.b
=98	=98	=98	=98	=98	=98	=98	=98
2.I	D:maj	.	.	201.191	newline	guitar	2.D 2.f# 2.a
=99	=99	=99	=99	=99	=99	=99	=99
2.IV	G:maj	.	.	202.978	.	guitar	2.G 2.b 2.dd
=100	=100	=100	=100	=100	=100	=100	=100
2.-III	F:maj(9)	.	.	204.765	.	guitar	2.F 2.a 2.cc
=101	=101	=101	=101	=101	=101	=101	=101
2.ii	E:min	.	.	206.552	.	guitar	2.E 2.g 2.b
=102	=102	=102	=102	=102	=102	=102	=102
2.I	D:maj	.	.	208.338	newline	guitar	2.D 2.f# 2.a
=103	=103	=103	=103	=103	=103	=103	=103
2.IV	G:maj	.	.	210.073	.	guitar	2.G 2.b 2.dd
=104	=104	=104	=104	=104	=104	=104	=104
2.-III	F:maj(9)	.	.	211.808	.	guitar	2.F 2.a 2.cc
=105	=105	=105	=105	=105	=105	=105	=105
2.ii	E:min	.	.	213.542	.	guitar	2.E 2.g 2.b
=106	=106	=106	=106	=106	=106	=106	=106
*>Letter>C	*>Letter>C	*>Letter>C	*>Letter>C	*>Letter>C	*>Letter>C	*>Letter>C	*>Letter>C
*>Label>Prechorus	*>Label>Prechorus	*>Label>Prechorus	*>Label>Prechorus	*>Label>Prechorus	*>Label>Prechorus	*>Label>Prechorus	*>Label>Prechorus
*M4/4	*M4/4	*	*	*M4/4	*M4/4	*M4/4	*
*b:	*b:	*	*	*	*	*	*b:
1-VI	G:maj	Now	.	215.277	newline	voice	1G- 1b- 1dd-
.	.	the	.	.	.	.	.
.	.	world	.	.	.	.	.
.	.	is	.	.	.	.	.
.	.	gone	C	.	.	.	.
=107	=107	=107	=107	=107	=107	=107	=107
*M2/4	*M2/4	*	*	*M2/4	*M2/4	*M2/4	*
4V7	F#:7	I'm	.	217.566	.	voice	4F# 4a# 4cc# 4ee
4i	B:min	just	.	218.139	.	voice	4B 4dd 4ff#
.	.	one	C	.	.	.	.
=108	=108	=108	=108	=108	=108	=108	=108
*M4/4	*M4/4	*	*	*M4/4	*M4/4	*M4/4	*
1-VII	A:maj	_	.	218.711	.	voice	1A 1cc# 1ee
.	.	.	.	.	.	.	.
.	.	Oh	.	.	.	.	.
.	.	God	.	.	.	.	.
=109	=109	=109	=109	=109	=109	=109	=109
*M2/4	*M2/4	*	*	*M2/4	*M2/4	*M2/4	*
4i	B:1	help	.	221.001	.	voice	4B 4dd 4ff#
4ii	C#:1	me	A	221.573	.	voice	4C# 4e 4g#
=110	=110	=110	=110	=110	=110	=110	=110
*M4/4	*M4/4	*	*	*M4/4	*M4/4	*M4/4	*
1-VI	G:maj	Hold	.	222.145	newline	voice	1G- 1b- 1dd-
.	.	my	.	.	.	.	.
.	.	breath	B	.	.	.	.
.	.	as	.	.	.	.	.
.	.	I	.	.	.	.	.
=111	=111	=111	=111	=111	=111	=111	=111
*M2/4	*M2/4	*	*	*M2/4	*M2/4	*M2/4	*
4V7	F#:7	wish	.	224.385	.	voice	4F# 4a# 4cc# 4ee
4i	B:min	for	.	224.944	.	voice	4B 4dd 4ff#
.	.	death	B	.	.	.	.
=112	=112	=112	=112	=112	=112	=112	=112
*M4/4	*M4/4	*	*	*M4/4	*M4/4	*M4/4	*
1-VII	A:maj	_	.	225.504	.	voice	1A 1cc# 1ee
.	.	.	.	.	.	.	.
.	.	Oh	.	.	.	.	.
.	.	please	.	.	.	.	.
=113	=113	=113	=113	=113	=113	=113	=113
*M2/4	*M2/4	*	*	*M2/4	*M2/4	*M2/4	*
4i	B:1	God	.	227.743	.	voice	4B 4dd 4ff#
4ii	C#:1	help	.	228.303	.	voice	4C# 4e 4g#
=114	=114	=114	=114	=114	=114	=114	=114
*M4/4	*M4/4	*	*	*M4/4	*M4/4	*M4/4	*
1-VI	G:maj	me	A	228.863	newline	guitar	1G- 1b- 1dd-
.	.	_	.	.	.	.	.
.	.	_	.	.	.	.	.
=115	=115	=115	=115	=115	=115	=115	=115
*M2/4	*M2/4	*	*	*M2/4	*M2/4	*M2/4	*
4V7	F#:7	_	.	231.136	.	guitar	2F# 2a# 2cc# 2ee
4i	B:min	.	.	231.704	.	guitar	4B 4dd 4ff#
=116	=116	=116	=116	=116	=116	=116	=116
*>Letter>D	*>Letter>D	*>Letter>D	*>Letter>D	*>Letter>D	*>Letter>D	*>Letter>D	*>Letter>D
*>Label>Solo	*>Label>Solo	*>Label>Solo	*>Label>Solo	*>Label>Solo	*>Label>Solo	*>Label>Solo	*>Label>Solo
*M3/4	*M3/4	*	*	*M3/4	*M3/4	*M3/4	*
*e:	*e:	*	*	*	*	*	*e:
2.iv	A:min	.	.	232.272	newline	guitar	2.A 2.cc 2.ee
=117	=117	=117	=117	=117	=117	=117	=117
2.-III	G:maj	.	.	233.928	.	guitar	2.G- 2.b- 2.dd-
=118	=118	=118	=118	=118	=118	=118	=118
2.V	B:maj	.	.	235.584	.	guitar	2.B 2.dd# 2.ff#
=119	=119	=119	=119	=119	=119	=119	=119
2.-VI	C:5	.	.	237.24	.	guitar	2.C- 2.e- 2.g-
=120	=120	=120	=120	=120	=120	=120	=120
2.iv	A:min	.	.	238.896	newline	guitar	2.A 2.cc 2.ee
=121	=121	=121	=121	=121	=121	=121	=121
2.-III	G:maj	.	.	240.537	.	guitar	2.G- 2.b- 2.dd-
=122	=122	=122	=122	=122	=122	=122	=122
2.V	B:maj	.	.	242.178	.	guitar	2.B 2.dd# 2.ff#
=123	=123	=123	=123	=123	=123	=123	=123
2.-VI	C:5	.	.	243.819	.	guitar	2.C- 2.e- 2.g-
=124	=124	=124	=124	=124	=124	=124	=124
2.iv	A:min	.	.	245.46	newline	guitar	2.A 2.cc 2.ee
=125	=125	=125	=125	=125	=125	=125	=125
2.-III	G:maj	.	.	247.107	.	guitar	2.G- 2.b- 2.dd-
=126	=126	=126	=126	=126	=126	=126	=126
2.V	B:maj	.	.	248.754	.	guitar	2.B 2.dd# 2.ff#
=127	=127	=127	=127	=127	=127	=127	=127
2.-VI	C:5	.	.	250.401	.	guitar	2.C- 2.e- 2.g-
=128	=128	=128	=128	=128	=128	=128	=128
2.iv	A:min	.	.	252.048	newline	guitar	2.A 2.cc 2.ee
=129	=129	=129	=129	=129	=129	=129	=129
2.-III	G:maj	.	.	253.701	.	guitar	2.G- 2.b- 2.dd-
=130	=130	=130	=130	=130	=130	=130	=130
2.V	B:maj	.	.	255.353	.	guitar	2.B 2.dd# 2.ff#
=131	=131	=131	=131	=131	=131	=131	=131
2.-VI	C:5	.	.	257.006	.	guitar	2.C- 2.e- 2.g-
=132	=132	=132	=132	=132	=132	=132	=132
2.iv	A:min	.	.	258.658	newline	guitar	2.A 2.cc 2.ee
=133	=133	=133	=133	=133	=133	=133	=133
2.-III	G:maj	.	.	260.282	.	guitar	2.G- 2.b- 2.dd-
=134	=134	=134	=134	=134	=134	=134	=134
2.V	B:maj	.	.	261.907	.	guitar	2.B 2.dd# 2.ff#
=135	=135	=135	=135	=135	=135	=135	=135
2.-VI	C:5	.	.	263.531	.	guitar	2.C- 2.e- 2.g-
=136	=136	=136	=136	=136	=136	=136	=136
2.iv	A:min	.	.	265.155	newline	guitar	2.A 2.cc 2.ee
=137	=137	=137	=137	=137	=137	=137	=137
2.-III	G:maj	.	.	266.772	.	guitar	2.G- 2.b- 2.dd-
=138	=138	=138	=138	=138	=138	=138	=138
2.V	B:maj	.	.	268.39	.	guitar	2.B 2.dd# 2.ff#
=139	=139	=139	=139	=139	=139	=139	=139
2.-VI	C:5	.	.	270.007	.	guitar	2.C- 2.e- 2.g-
=140	=140	=140	=140	=140	=140	=140	=140
*M4/4	*M4/4	*	*	*M4/4	*M4/4	*M4/4	*
1-VI	C:maj	.	.	271.625	newline	guitar	1C- 1e- 1g-
=141	=141	=141	=141	=141	=141	=141	=141
1-VI	C:maj	.	.	273.774	.	guitar	1C- 1e- 1g-
=142	=142	=142	=142	=142	=142	=142	=142
*>Letter>E	*>Letter>E	*>Letter>E	*>Letter>E	*>Letter>E	*>Letter>E	*>Letter>E	*>Letter>E
*>Label>Interlude	*>Label>Interlude	*>Label>Interlude	*>Label>Interlude	*>Label>Interlude	*>Label>Interlude	*>Label>Interlude	*>Label>Interlude
1i	E:5(b7)	.	.	275.924	newline	guitar	1E 1g 1b
=143	=143	=143	=143	=143	=143	=143	=143
1i	E:5(b7)	.	.	278.097	.	guitar	1E 1g 1b
=144	=144	=144	=144	=144	=144	=144	=144
1i	E:5(b7)	.	.	280.27	.	guitar	1E 1g 1b
=145	=145	=145	=145	=145	=145	=145	=145
2.i	E:5(b7)	.	.	282.443	.	guitar	1E 1g 1b
4-II	F:5	.	.	284.072	.	guitar	4F 4a 4cc
=146	=146	=146	=146	=146	=146	=146	=146
2.i	E:5(b7)	.	.	284.616	newline	guitar	1E 1g 1b
4-II	F:5	.	.	286.23	.	guitar	4F 4a 4cc
=147	=147	=147	=147	=147	=147	=147	=147
2.i	E:5(b7)	.	.	286.768	.	guitar	1E 1g 1b
4-II	F:5	.	.	288.381	.	guitar	4F 4a 4cc
=148	=148	=148	=148	=148	=148	=148	=148
2.i	E:5(b7)	.	.	288.919	.	guitar	1E 1g 1b
4-II	F:maj	.	.	290.533	.	guitar	4F 4a 4cc
=149	=149	=149	=149	=149	=149	=149	=149
2.i	E:5(b7)	.	.	291.071	.	guitar	1E 1g 1b
4-II	F:5	.	.	292.685	.	guitar	4F 4a 4cc
=150	=150	=150	=150	=150	=150	=150	=150
1i	E:5	Dark-	.	293.223	newline	voice	1E 1g 1b
.	.	-ness	.	.	.	.	.
.	.	.	.	.	.	.	.
.	.	im-	.	.	.	.	.
.	.	-pris-	.	.	.	.	.
.	.	-on-	.	.	.	.	.
.	.	-ing	.	.	.	.	.
.	.	me	A	.	.	.	.
.	.	.	.	.	.	.	.
=151	=151	=151	=151	=151	=151	=151	=151
2.i	E:5	all	.	295.389	.	voice	2.E 2.g 2.b
.	.	that	.	.	.	.	.
.	.	I	.	.	.	.	.
.	.	see	A	.	.	.	.
.	.	.	.	.	.	.	.
.	.	ab-	.	.	.	.	.
.	.	-so-	.	.	.	.	.
.	.	-lute	.	.	.	.	.
4-II	F:5	hor-	.	297.013	.	voice	4F 4a 4cc
.	.	-ror	.	.	.	.	.
=152	=152	=152	=152	=152	=152	=152	=152
1I	E:5	I	.	297.554	.	voice	1E 1g# 1b
.	.	can-	.	.	.	.	.
.	.	-not	.	.	.	.	.
.	.	live	.	.	.	.	.
.	.	.	.	.	.	.	.
.	.	I	.	.	.	.	.
.	.	can-	.	.	.	.	.
.	.	-not	.	.	.	.	.
.	.	die	.	.	.	.	.
.	.	.	.	.	.	.	.
=153	=153	=153	=153	=153	=153	=153	=153
2.i	E:5	Trapped	.	299.72	.	voice	2.E 2.g 2.b
.	.	in	.	.	.	.	.
.	.	my-	.	.	.	.	.
.	.	-self	D	.	.	.	.
.	.	.	.	.	.	.	.
.	.	bod-	.	.	.	.	.
.	.	-y	.	.	.	.	.
.	.	my	.	.	.	.	.
4-II	F:5	hold-	.	301.344	.	voice	4F 4a 4cc
.	.	-ing	.	.	.	.	.
=154	=154	=154	=154	=154	=154	=154	=154
2.i	E:5	cell	D	301.886	newline	guitar	1E 1g 1b
.	.	_	.	.	.	.	.
.	.	.	.	.	.	.	.
4-II	F:5	.	.	303.51	.	guitar	4F 4a 4cc
=155	=155	=155	=155	=155	=155	=155	=155
1i	E:5(b7)	.	.	304.052	.	guitar	1E 1g 1b
.	D:1	.	.	304.593	.	guitar	.
.	E:1	.	.	305.135	.	guitar	.
.	F:1	.	.	305.676	.	guitar	.
=156	=156	=156	=156	=156	=156	=156	=156
2.i	E:5(b7)	.	.	306.218	.	guitar	1E 1g 1b
4-II	F:5	.	.	307.842	.	guitar	4F 4a 4cc
=157	=157	=157	=157	=157	=157	=157	=157
1i	E:5(b7)	.	.	308.384	.	guitar	1E 1g 1b
.	D:1	.	.	308.925	.	guitar	.
.	E:5	.	.	309.467	.	guitar	.
.	B:5	.	.	310.008	.	guitar	.
=158	=158	=158	=158	=158	=158	=158	=158
1i	E:5(b7)	Land-	.	310.55	newline	voice	1E 1g 1b
.	.	-mine	.	.	.	.	.
.	.	.	.	.	.	.	.
.	.	has	.	.	.	.	.
.	.	tak-	.	.	.	.	.
.	.	-en	.	.	.	.	.
.	.	my	.	.	.	.	.
.	.	sight	.	.	.	.	.
.	.	.	.	.	.	.	.
=159	=159	=159	=159	=159	=159	=159	=159
2.i	E:5(b7)	tak-	.	312.709	.	voice	2.E 2.g 2.b
.	.	-en	.	.	.	.	.
.	.	my	.	.	.	.	.
.	.	speech	.	.	.	.	.
.	.	.	.	.	.	.	.
.	.	tak-	.	.	.	.	.
.	.	-en	.	.	.	.	.
.	.	my	.	.	.	.	.
4-II	F:5	hear-	.	314.328	.	voice	4F 4a 4cc
.	.	-ing	.	.	.	.	.
=160	=160	=160	=160	=160	=160	=160	=160
2.i	E:5(b7)	tak-	.	314.868	.	voice	2.E 2.g 2.b
.	.	-en	.	.	.	.	.
.	.	my	.	.	.	.	.
.	.	arms	.	.	.	.	.
.	.	.	.	.	.	.	.
.	.	tak-	.	.	.	.	.
.	.	-en	.	.	.	.	.
.	.	my	.	.	.	.	.
4-II	F:maj	legs	.	316.487	.	voice	4F 4a 4cc
.	.	.	.	.	.	.	.
=161	=161	=161	=161	=161	=161	=161	=161
2.i	E:5(b7)	tak-	.	317.027	.	voice	2.E 2.g 2.b
.	.	-en	.	.	.	.	.
.	.	my	.	.	.	.	.
.	.	soul	.	.	.	.	.
.	.	.	.	.	.	.	.
.	.	left	.	.	.	.	.
.	.	me	.	.	.	.	.
.	.	with	.	.	.	.	.
4-II	F:5	life	.	318.647	.	voice	4F 4a 4cc
.	.	in	.	.	.	.	.
=162	=162	=162	=162	=162	=162	=162	=162
2.i	E:5(b7)	hell	.	319.187	newline	guitar	1E 1g 1b
.	.	_	.	.	.	.	.
4-II	F:5	.	.	320.819	.	guitar	4F 4a 4cc
=163	=163	=163	=163	=163	=163	=163	=163
2.i	E:5(b7)	_	.	321.363	.	guitar	1E 1g 1b
4-II	F:5	.	.	322.995	.	guitar	4F 4a 4cc
=164	=164	=164	=164	=164	=164	=164	=164
2.i	E:5(b7)	_	.	323.539	.	guitar	1E 1g 1b
.	.	.	.	.	.	.	.
4-II	F:maj	.	.	325.171	.	guitar	4F 4a 4cc
=165	=165	=165	=165	=165	=165	=165	=165
2.i	E:5(b7)	.	.	325.715	.	guitar	1E 1g 1b
4-II	F:5	.	.	327.347	.	guitar	4F 4a 4cc
=166	=166	=166	=166	=166	=166	=166	=166
1i	E:5	.	.	327.891	newline	guitar	1E 1g 1b
=167	=167	=167	=167	=167	=167	=167	=167
1i	E:5	.	.	330.073	.	guitar	1E 1g 1b
=168	=168	=168	=168	=168	=168	=168	=168
2.i	E:5(b7)	.	.	332.256	newline	guitar	1E 1g 1b
4-II	F:5	.	.	333.866	.	guitar	4F 4a 4cc
=169	=169	=169	=169	=169	=169	=169	=169
2.i	E:5(b7)	.	.	334.403	.	guitar	1E 1g 1b
4-II	F:5	.	.	336.014	.	guitar	4F 4a 4cc
=170	=170	=170	=170	=170	=170	=170	=170
2.i	E:5(b7)	.	.	336.551	.	guitar	1E 1g 1b
4-II	F:maj	.	.	338.162	.	guitar	4F 4a 4cc
=171	=171	=171	=171	=171	=171	=171	=171
2.i	E:5(b7)	.	.	338.699	.	guitar	1E 1g 1b
4-II	F:5	.	.	340.31	.	guitar	4F 4a 4cc
=172	=172	=172	=172	=172	=172	=172	=172
1i	E:5	.	.	340.847	newline	guitar	1E 1g 1b
=173	=173	=173	=173	=173	=173	=173	=173
1i	E:5	.	.	343.003	.	guitar	1E 1g 1b
=174	=174	=174	=174	=174	=174	=174	=174
*>Letter>E	*>Letter>E	*>Letter>E	*>Letter>E	*>Letter>E	*>Letter>E	*>Letter>E	*>Letter>E
*>Label>Solo	*>Label>Solo	*>Label>Solo	*>Label>Solo	*>Label>Solo	*>Label>Solo	*>Label>Solo	*>Label>Solo
2.i	E:5(b7)	.	.	345.159	newline	guitar	1E 1g 1b
4-II	F:5	.	.	346.775	.	guitar	4F 4a 4cc
=175	=175	=175	=175	=175	=175	=175	=175
2.i	E:5(b7)	.	.	347.314	.	guitar	1E 1g 1b
4-II	F:5	.	.	348.929	.	guitar	4F 4a 4cc
=176	=176	=176	=176	=176	=176	=176	=176
2.i	E:5(b7)	.	.	349.468	.	guitar	1E 1g 1b
4-II	F:maj	.	.	351.084	.	guitar	4F 4a 4cc
=177	=177	=177	=177	=177	=177	=177	=177
2.i	E:5(b7)	.	.	351.622	.	guitar	1E 1g 1b
4-II	F:5	.	.	353.238	.	guitar	4F 4a 4cc
=178	=178	=178	=178	=178	=178	=178	=178
1i	E:5	.	.	353.776	newline	guitar	1E 1g 1b
=179	=179	=179	=179	=179	=179	=179	=179
1i	E:5(b7)	.	.	355.914	newline	guitar	1E 1g 1b
=180	=180	=180	=180	=180	=180	=180	=180
2i	E:5(b7)	.	.	358.082	.	guitar	1E 1g 1b
2-III	G:5	.	.	359.167	.	guitar	2G- 2b- 2dd-
=181	=181	=181	=181	=181	=181	=181	=181
1i	E:5(b7)	.	.	360.251	.	guitar	1E 1g 1b
=182	=182	=182	=182	=182	=182	=182	=182
2i	E:5(b7)	.	.	362.42	.	guitar	1E 1g 1b
2-III	G:5	.	.	363.504	.	guitar	2G- 2b- 2dd-
=183	=183	=183	=183	=183	=183	=183	=183
1-III	G:5	.	.	364.588	newline	guitar	1G- 1b- 1dd-
=184	=184	=184	=184	=184	=184	=184	=184
2-III	G:5	.	.	366.73	.	guitar	1G- 1b- 1dd-
.	A-:5	.	.	367.266	.	guitar	.
2-II	F:5	.	.	367.801	.	guitar	2F 2a 2cc
=185	=185	=185	=185	=185	=185	=185	=185
1-III	G:5	.	.	368.872	.	guitar	1G- 1b- 1dd-
=186	=186	=186	=186	=186	=186	=186	=186
2-III	G:5	.	.	371.014	.	guitar	1G- 1b- 1dd-
.	A-:5	.	.	371.549	.	guitar	.
2-II	F:5	.	.	372.085	.	guitar	2F 2a 2cc
=187	=187	=187	=187	=187	=187	=187	=187
1-III	G:7	.	.	373.156	newline	guitar	1G- 1b- 1dd-
=188	=188	=188	=188	=188	=188	=188	=188
1-II	F:5	.	.	375.303	.	guitar	1F 1a 1cc
=189	=189	=189	=189	=189	=189	=189	=189
1-III	G:7	.	.	377.451	.	guitar	1G- 1b- 1dd-
=190	=190	=190	=190	=190	=190	=190	=190
1-II	F:maj	.	.	379.599	.	guitar	1F 1a 1cc
=191	=191	=191	=191	=191	=191	=191	=191
2-III	G:5	.	.	381.747	.	guitar	1G- 1b- 1dd-
2-VII	D:5	.	.	382.821	.	guitar	2D 2f# 2a
=192	=192	=192	=192	=192	=192	=192	=192
2.i	E:5(b7)	.	.	383.895	newline	guitar	1E 1g 1b
4-II	F:5	.	.	385.517	.	guitar	4F 4a 4cc
=193	=193	=193	=193	=193	=193	=193	=193
2.i	E:5(b7)	.	.	386.058	.	guitar	1E 1g 1b
4-II	F:5	.	.	387.68	.	guitar	4F 4a 4cc
=194	=194	=194	=194	=194	=194	=194	=194
2.i	E:5(b7)	.	.	388.221	.	guitar	1E 1g 1b
4-II	F:5	.	.	389.843	.	guitar	4F 4a 4cc
=195	=195	=195	=195	=195	=195	=195	=195
2.i	E:5(b7)	.	.	390.384	.	guitar	1E 1g 1b
4-II	F:5	.	.	392.006	.	guitar	4F 4a 4cc
=196	=196	=196	=196	=196	=196	=196	=196
1I	E:maj	.	.	392.547	newline	guitar	1E 1g# 1b
=197	=197	=197	=197	=197	=197	=197	=197
2.i	E:5(b7)	.	.	394.701	newline	guitar	1E 1g 1b
4-II	F:5	.	.	396.307	.	guitar	4F 4a 4cc
=198	=198	=198	=198	=198	=198	=198	=198
2.i	E:5(b7)	.	.	396.842	.	guitar	1E 1g 1b
4-II	F:5	.	.	398.448	.	guitar	4F 4a 4cc
=199	=199	=199	=199	=199	=199	=199	=199
2.i	E:5(b7)	.	.	398.983	.	guitar	1E 1g 1b
4-II	F:5	.	.	400.589	.	guitar	4F 4a 4cc
=200	=200	=200	=200	=200	=200	=200	=200
2.i	E:5(b7)	.	.	401.124	.	guitar	1E 1g 1b
4-II	F:5	.	.	402.73	.	guitar	4F 4a 4cc
=201	=201	=201	=201	=201	=201	=201	=201
2.i	E:5(b7)	.	.	403.265	newline	guitar	1E 1g 1b
4-II	F:5	.	.	404.88	.	guitar	4F 4a 4cc
=202	=202	=202	=202	=202	=202	=202	=202
2.i	E:5(b7)	.	.	405.418	.	guitar	1E 1g 1b
4-II	F:5	.	.	407.032	.	guitar	4F 4a 4cc
=203	=203	=203	=203	=203	=203	=203	=203
2.i	E:5(b7)	.	.	407.57	.	guitar	1E 1g 1b
4-II	F:5	.	.	409.185	.	guitar	4F 4a 4cc
=204	=204	=204	=204	=204	=204	=204	=204
2.i	E:5(b7)	.	.	409.723	.	guitar	1E 1g 1b
4-II	F:5	.	.	411.337	.	guitar	4F 4a 4cc
=205	=205	=205	=205	=205	=205	=205	=205
2.i	E:5(b7)	.	.	411.876	newline	guitar	1E 1g 1b
4-II	F:5	.	.	413.498	.	guitar	4F 4a 4cc
=206	=206	=206	=206	=206	=206	=206	=206
2.i	E:5(b7)	.	.	414.038	newline	guitar	1E 1g 1b
4-II	F:5	.	.	415.645	.	guitar	4F 4a 4cc
=207	=207	=207	=207	=207	=207	=207	=207
2.i	E:5(b7)	.	.	416.181	.	guitar	1E 1g 1b
4-II	F:5	.	.	417.787	.	guitar	4F 4a 4cc
=208	=208	=208	=208	=208	=208	=208	=208
2.i	E:5(b7)	.	.	418.323	.	guitar	1E 1g 1b
4-II	F:5	.	.	419.93	.	guitar	4F 4a 4cc
=209	=209	=209	=209	=209	=209	=209	=209
2.i	E:5(b7)	.	.	420.465	.	guitar	1E 1g 1b
4-II	F:5	.	.	422.072	.	guitar	4F 4a 4cc
=210	=210	=210	=210	=210	=210	=210	=210
1-III	G:5	.	.	422.607	newline	guitar	1G- 1b- 1dd-
=211	=211	=211	=211	=211	=211	=211	=211
2.i	E:5(b7)	.	.	424.736	.	guitar	1E 1g 1b
4-II	F:5	.	.	426.332	.	guitar	4F 4a 4cc
=212	=212	=212	=212	=212	=212	=212	=212
1-III	G:5	.	.	426.864	.	guitar	1G- 1b- 1dd-
1r;	N	.	.	442.921	.	r	1r;
1r;	N	.	.	444.5	.	r	1r;
*-	*-	*-	*-	*-	*-	*-	*-
!!!BillboardChartDate: 1989/05/20
!!!BillboardPeak: 35
!!!BillboardWeeksOnChart: 15
!!!COC: Metallica
!!!EMD: Harmonic interpretation of riffs near the end is a stretch.
!!!ENC: Nathaniel Condit-Schultz
!!!EST: Awating manual error checking and editing.
!!!OTL: One
!!!RDF**harte: Chris Harte's syntax, used by MIREX
!!!RDF**harmony: **recip + pitch class of root + harmonic quality
!!!RDF**leadinstrument: original McGill primary instrumentation annotation
!!!RDF**phrase: newline = linebreak in original McGill transcription
!!!RDF**timestamp: McGill audio timestamp in seconds
!!!RDT: 2017/01/12/
!!!SampleActualRank: 89
!!!SampleID#: 0884
!!!SampleTargetRank: 89
!!!MBID: 56d2735d-abc7-4070-9c3f-bc27593d922d
